resources/icons/dark/git.svg

<svg xmlns="http://www.w3.org/2000/svg" width="28" height="28"><path d="M27.459 14.902l-10.439-10.439c-.296-.294-.672-.452-1.089-.452-.417 0-.793.157-1.089.452l-2.248 2.247 2.549 2.549c.249-.112.522-.177.813-.177 1.106 0 2.002.896 2.002 2.002 0 .291-.064.565-.176.814l2.311 2.336c.25-.111.633-.234.923-.234 1.106 0 2 .911 2 2.016s-.894 1.969-2 1.969c-1.105-.001-2.016-.751-2.016-1.985 0-.28.016-.462.119-.704l-2.373-2.374-.023.007v6.274c.747.295 1.277 1.026 1.277 1.875 0 1.105-.878 2.016-1.984 2.016-1.104 0-2.031-.926-2.031-2.031 0-.846.535-1.564 1.28-1.857l.001-6.25c-.762-.282-1.309-1.009-1.309-1.871 0-.28.059-.546.162-.788l-2.555-2.557-7.115 7.114c-.599.601-.601 1.576.001 2.178l10.44 10.518c.296.295.671.45 1.089.45.415 0 .796-.159 1.089-.45l10.391-10.471c.601-.599.599-1.576 0-2.177z" fill="#fff"/></svg>

<?xml version="1.0" encoding="UTF-8" standalone="no"?>
<!DOCTYPE svg PUBLIC "-//W3C//DTD SVG 1.1//EN" "http://www.w3.org/Graphics/SVG/1.1/DTD/svg11.dtd">
<svg width="100%" height="100%" viewBox="0 0 16 17" version="1.1" xmlns="http://www.w3.org/2000/svg" xmlns:xlink="http://www.w3.org/1999/xlink" xml:space="preserve" xmlns:serif="http://www.serif.com/" style="fill-rule:evenodd;clip-rule:evenodd;stroke-linejoin:round;stroke-miterlimit:2;">
    <g transform="matrix(0.66918,0,0,0.66918,-2.67613,-2.68408)">
        <path d="M27.459,14.902L17.02,4.463C16.724,4.169 16.348,4.011 15.931,4.011C15.514,4.011 15.138,4.168 14.842,4.463L12.594,6.71L15.143,9.259C15.392,9.147 15.665,9.082 15.956,9.082C17.062,9.082 17.958,9.978 17.958,11.084C17.958,11.375 17.894,11.649 17.782,11.898L20.093,14.234C20.343,14.123 20.726,14 21.016,14C22.122,14 23.016,14.911 23.016,16.016C23.016,17.121 22.122,17.985 21.016,17.985C19.911,17.984 19,17.234 19,16C19,15.72 19.016,15.538 19.119,15.296L16.746,12.922L16.723,12.929L16.723,19.203C17.47,19.498 18,20.229 18,21.078C18,22.183 17.122,23.094 16.016,23.094C14.912,23.094 13.985,22.168 13.985,21.063C13.985,20.217 14.52,19.499 15.265,19.206L15.266,12.956C14.504,12.674 13.957,11.947 13.957,11.085C13.957,10.805 14.016,10.539 14.119,10.297L11.564,7.74L4.449,14.854C3.85,15.455 3.848,16.43 4.45,17.032L14.89,27.55C15.186,27.845 15.561,28 15.979,28C16.394,28 16.775,27.841 17.068,27.55L27.459,17.079C28.06,16.48 28.058,15.503 27.459,14.902Z" style="fill:white;fill-rule:nonzero;"/>
    </g>
</svg>
